scalable/places/folder-cpp.svg

<?xml version="1.0" encoding="UTF-8" standalone="no"?>
<svg
   height="128px"
   viewBox="0 0 128 128"
   width="128px"
   version="1.1"
   id="svg8"
   sodipodi:docname="folder-cpp.svg"
   xml:space="preserve"
   inkscape:version="1.3.2 (091e20ef0f, 2023-11-25)"
   xmlns:inkscape="http://www.inkscape.org/namespaces/inkscape"
   xmlns:sodipodi="http://sodipodi.sourceforge.net/DTD/sodipodi-0.dtd"
   xmlns="http://www.w3.org/2000/svg"
   xmlns:svg="http://www.w3.org/2000/svg"><defs
     id="defs8">
	

	

	
</defs><sodipodi:namedview
     id="namedview8"
     pagecolor="#ffffff"
     bordercolor="#000000"
     borderopacity="0.25"
     inkscape:showpageshadow="2"
     inkscape:pageopacity="0.0"
     inkscape:pagecheckerboard="0"
     inkscape:deskcolor="#d1d1d1"
     inkscape:zoom="1.7500001"
     inkscape:cx="14.857142"
     inkscape:cy="74.285712"
     inkscape:window-width="1920"
     inkscape:window-height="1043"
     inkscape:window-x="0"
     inkscape:window-y="0"
     inkscape:window-maximized="1"
     inkscape:current-layer="svg8" /><linearGradient
     id="a"
     gradientTransform="matrix(0.45451 0 0 0.455522 -1210.292114 616.172607)"
     gradientUnits="userSpaceOnUse"
     x1="2689.251953"
     x2="2918.069824"
     y1="-1106.802979"
     y2="-1106.802979"><stop
       offset="0"
       stop-color="#62a0ea"
       id="stop1" /><stop
       offset="0.0576991"
       stop-color="#afd4ff"
       id="stop2" /><stop
       offset="0.122204"
       stop-color="#62a0ea"
       id="stop3" /><stop
       offset="0.873306"
       stop-color="#62a0ea"
       id="stop4" /><stop
       offset="0.955997"
       stop-color="#c0d5ea"
       id="stop5" /><stop
       offset="1"
       stop-color="#62a0ea"
       id="stop6" /></linearGradient><path
     d="M 21.976562,12 C 16.449219,12 12,16.460938 12,22 v 86.03125 c 0,5.54297 4.449219,10 9.976562,10 h 84.042968 c 5.53125,0 9.98047,-4.45703 9.98047,-10 V 35.945312 c 0,-6.628906 -5.35937,-12 -11.97266,-12 H 58 c -2.453125,0 -4.695312,-1.386718 -5.796875,-3.582031 L 50.699219,17.371094 C 49.042969,14.078125 45.679688,12 42,12 Z m 0,0"
     fill="#438de6"
     id="path6"
     style="fill:#4195d4;fill-opacity:1" /><path
     d="M 65.976562,36 C 63.230469,36 60.75,37.101562 58.949219,38.890625 56.675781,41.144531 53.566406,44 50.316406,44 H 21.976562 C 16.449219,44 12,48.460938 12,54 v 54.03125 c 0,5.54297 4.449219,10 9.976562,10 h 84.042968 c 5.53125,0 9.98047,-4.45703 9.98047,-10 V 46 c 0,-5.539062 -4.44922,-10 -9.98047,-10 z m 0,0"
     fill="url(#a)"
     id="path7"
     style="fill:#4195d4;fill-opacity:1" /><path
     d="M 65.976562,32 C 63.230469,32 60.75,33.101562 58.949219,34.890625 56.675781,37.144531 53.566406,40 50.316406,40 H 21.976562 C 16.449219,40 12,44.460938 12,50 v 55.97656 c 0,5.53907 4.449219,10 9.976562,10 h 84.042968 c 5.53125,0 9.98047,-4.46093 9.98047,-10 V 42 c 0,-5.539062 -4.44922,-10 -9.98047,-10 z m 0,0"
     fill="#a4caee"
     id="path8"
     style="fill:#c1d6eb;fill-opacity:1" /><path
     id="path1"
     style="stroke-width:0.144775;fill:#4195d4;fill-opacity:1"
     d="M 64 52.087891 C 63.304611 52.087891 62.609518 52.242269 62.082031 52.546875 L 43.767578 63.119141 C 42.71246 63.728207 41.849609 65.223127 41.849609 66.441406 L 41.849609 87.589844 C 41.849609 88.199056 42.06436 88.876397 42.412109 89.478516 C 42.759713 90.080634 43.240165 90.607649 43.767578 90.912109 L 62.082031 101.48633 C 63.137004 102.09554 64.862996 102.09554 65.917969 101.48633 L 84.232422 90.912109 C 84.75998 90.607504 85.240286 90.080778 85.587891 89.478516 C 85.935494 88.876397 86.150391 88.199056 86.150391 87.589844 L 86.150391 66.441406 C 86.150391 65.832194 85.935638 65.154853 85.587891 64.552734 C 85.240141 63.950472 84.759835 63.423746 84.232422 63.119141 L 65.917969 52.546875 C 65.390482 52.242269 64.695388 52.087891 64 52.087891 z M 64 62.248047 C 69.254164 62.248047 74.155321 65.075526 76.789062 69.626953 L 70.396484 73.326172 C 69.078311 71.047997 66.62766 69.632812 64 69.632812 C 59.928645 69.632812 56.617188 72.94427 56.617188 77.015625 C 56.617188 81.086834 59.928645 84.398438 64 84.398438 C 66.62795 84.398437 69.080119 82.983687 70.398438 80.705078 L 76.789062 84.404297 C 74.155321 88.956158 69.254454 91.783203 64 91.783203 C 55.857436 91.783203 49.232422 85.158189 49.232422 77.015625 C 49.232422 68.87306 55.857436 62.248047 64 62.248047 z M 75.486328 74.554688 L 77.126953 74.554688 L 77.126953 76.195312 L 78.767578 76.195312 L 78.767578 77.835938 L 77.126953 77.835938 L 77.126953 79.476562 L 75.486328 79.476562 L 75.486328 77.835938 L 73.845703 77.835938 L 73.845703 76.195312 L 75.486328 76.195312 L 75.486328 74.554688 z M 81.638672 74.554688 L 83.279297 74.554688 L 83.279297 76.195312 L 84.919922 76.195312 L 84.919922 77.835938 L 83.279297 77.835938 L 83.279297 79.476562 L 81.638672 79.476562 L 81.638672 77.835938 L 79.998047 77.835938 L 79.998047 76.195312 L 81.638672 76.195312 L 81.638672 74.554688 z " /></svg>

<svg xmlns="http://www.w3.org/2000/svg" xml:space="preserve" width="128" height="128" viewBox="0 0 128 128">
    <linearGradient id="a" x1="2689.252" x2="2918.07" y1="-1106.803" y2="-1106.803" gradientTransform="matrix(.45451 0 0 .45552 -1210.292 616.173)" gradientUnits="userSpaceOnUse">
        <stop offset="0" stop-color="#62a0ea"/>
        <stop offset=".058" stop-color="#afd4ff"/>
        <stop offset=".122" stop-color="#62a0ea"/>
        <stop offset=".873" stop-color="#62a0ea"/>
        <stop offset=".956" stop-color="#c0d5ea"/>
        <stop offset="1" stop-color="#62a0ea"/>
    </linearGradient>
    <path fill="#438de6" d="M21.977 12C16.449 12 12 16.46 12 22v86.031c0 5.543 4.45 10 9.977 10h84.043a9.965 9.965 0 0 0 9.98-10V35.945c0-6.629-5.36-12-11.973-12H58a6.49 6.49 0 0 1-5.797-3.582L50.7 17.371A9.74 9.74 0 0 0 42 12Zm0 0" style="fill:#4195d4;fill-opacity:1"/>
    <path fill="url(#a)" d="M65.977 36a9.93 9.93 0 0 0-7.028 2.89C56.676 41.146 53.566 44 50.316 44h-28.34C16.45 44 12 48.46 12 54v54.031c0 5.543 4.45 10 9.977 10h84.043a9.965 9.965 0 0 0 9.98-10V46c0-5.54-4.45-10-9.98-10zm0 0" style="fill:#4195d4;fill-opacity:1"/>
    <path fill="#a4caee" d="M65.977 32a9.93 9.93 0 0 0-7.028 2.89C56.676 37.146 53.566 40 50.316 40h-28.34C16.45 40 12 44.46 12 50v55.977c0 5.539 4.45 10 9.977 10h84.043c5.53 0 9.98-4.461 9.98-10V42c0-5.54-4.45-10-9.98-10zm0 0" style="fill:#c1d6eb;fill-opacity:1"/>
    <path d="M64 52.088c-.695 0-1.39.154-1.918.459L43.768 63.119c-1.056.61-1.918 2.104-1.918 3.322V87.59c0 .61.214 1.286.562 1.889.348.602.828 1.129 1.356 1.433l18.314 10.574c1.055.61 2.781.61 3.836 0l18.314-10.574c.528-.304 1.008-.831 1.356-1.433.347-.603.562-1.28.562-1.89V66.442c0-.609-.214-1.286-.562-1.888-.348-.603-.828-1.13-1.356-1.434L65.918 52.547c-.528-.305-1.223-.46-1.918-.46m0 10.16a14.82 14.82 0 0 1 12.79 7.379l-6.394 3.7A7.41 7.41 0 0 0 64 69.632c-4.071 0-7.383 3.311-7.383 7.383 0 4.07 3.312 7.382 7.383 7.382a7.42 7.42 0 0 0 6.398-3.693l6.391 3.7A14.82 14.82 0 0 1 64 91.782c-8.143 0-14.768-6.625-14.768-14.767 0-8.143 6.625-14.768 14.768-14.768m11.486 12.307h1.641v1.64h1.64v1.64h-1.64v1.642h-1.64v-1.641h-1.641v-1.64h1.64zm6.153 0h1.64v1.64h1.64v1.64h-1.64v1.642h-1.64v-1.641h-1.641v-1.64h1.64z" style="stroke-width:.144775;fill:#4195d4;fill-opacity:1"/>
</svg>
